images/company7.svg

<svg width="311" height="40" viewBox="0 0 311 40" fill="none" xmlns="http://www.w3.org/2000/svg">
<path d="M105.678 22.0471H119.278V20.0706H105.678V7.83529H120.408V5.78824H101.349V39.1529H120.643V37.0118H105.678V22.0471ZM217.066 28.3294C217.066 34.4471 213.066 37.9765 207.137 37.9765C201.89 37.9765 197.89 35.1765 197.89 28.9176V5.78824H193.655V28.0706C193.655 35.5529 197.937 39.8353 206.666 39.8353C215.937 39.8353 219.608 34.3059 219.608 28.3059V5.78824H217.066V28.3294ZM236.031 37.1765H230.36V7.71765H237.89C245.843 7.57647 250.431 12.6588 250.431 22.5882C250.431 33.3412 244.855 37.2941 236.031 37.1529M238.478 5.76471H226.031V39.1294H236.831C246.549 39.2706 254.784 34.4471 254.784 22.0471C254.784 11.6235 248.784 5.57647 238.478 5.81177M294.76 21.3412H289.702V7.62353H296.831C301.608 7.57647 304.219 9.92941 304.219 14.3294C304.219 19.2941 300.125 21.4118 294.784 21.3412M300.125 22.6824C301.584 22.4 308.361 20.4706 308.361 14.3294C308.361 8.21177 303.255 5.62353 297.113 5.78824H285.396V39.1294H289.725V23.2H295.96L305.89 39.1294H310.69L300.125 22.6588V22.6824ZM264.36 22.0471H277.913V20.0706H264.36V7.76471H279.043V5.78824H260.055V39.1529H279.278V37.0118H264.36V22.0471ZM169.137 24.4235C169.843 22.7765 172.713 15.4588 174.925 9.64706C177.043 15.2471 179.278 20.8471 180.737 24.4235H169.137ZM177.443 5.45882H174.078L160.384 39.1529H163.325L168.337 26.4H181.466L186.549 39.1529H191.419L182.784 18.4471L177.443 5.45882ZM27.1369 12.9412C27.1369 9.69412 30.1017 6.84706 34.5487 6.84706C38.9958 6.84706 42.0546 9.24706 43.2546 10.2824V7.22353C40.5032 5.80206 37.4572 5.04459 34.3605 5.01177C28.6428 5.01177 23.3722 8.49412 23.3722 14.1176C23.3722 26.0235 41.7252 21.7412 41.7252 30.6588C41.7252 34.3294 38.3605 38 32.7369 38C28.384 38 24.9722 35.6941 23.3722 34.6824V37.7177C26.1252 39.2471 29.4899 40.0471 32.7369 40.0471C39.4899 40.0471 45.584 36.0471 45.584 29.2706C45.584 17.8824 27.1134 21.7412 27.1134 12.9647M46.384 7.81176H56.8781V39.1529H61.1605V7.81176H71.6075V5.78824H46.384V7.81176ZM4.33695 22.0471H17.9134V20.0706H4.31342V7.83529H19.1369V5.78824H0.078125V39.1529H19.3017V37.0118H4.33695V22.0471ZM143.984 5.78824H139.772V39.1529H158.831V36.9647H144.008V5.78824H143.984ZM80.384 22.0471H93.937V20.0706H80.384V7.83529H95.0664V5.78824H76.1017V39.1529H95.3017V37.0118H80.384V22.0471ZM95.0664 0H75.984V1.92941H95.0664V0Z" fill="white"/>
</svg>

<svg width="311" height="40" fill="none" xmlns="http://www.w3.org/2000/svg"><path d="M105.678 22.047h13.6v-1.976h-13.6V7.835h14.73V5.788h-19.059v33.365h19.294v-2.141h-14.965V22.047Zm111.388 6.282c0 6.118-4 9.648-9.929 9.648-5.247 0-9.247-2.8-9.247-9.06V5.789h-4.235v22.283c0 7.482 4.282 11.764 13.011 11.764 9.271 0 12.942-5.53 12.942-11.53V5.789h-2.542V28.33Zm18.965 8.847h-5.671V7.718h7.53c7.953-.142 12.541 4.94 12.541 14.87 0 10.753-5.576 14.706-14.4 14.565m2.447-31.388h-12.447v33.364h10.8c9.718.142 17.953-4.682 17.953-17.082 0-10.424-6-16.47-16.306-16.235m56.282 15.53h-5.058V7.623h7.129c4.777-.048 7.388 2.305 7.388 6.705 0 4.965-4.094 7.083-9.435 7.012m5.341 1.341c1.459-.282 8.236-2.211 8.236-8.353 0-6.117-5.106-8.705-11.248-8.54h-11.717v33.34h4.329V23.2h6.235l9.93 15.93h4.8l-10.565-16.471v.023Zm-35.765-.635h13.553v-1.976H264.36V7.765h14.683V5.788h-18.988v33.365h19.223v-2.141H264.36V22.047Zm-95.223 2.377c.706-1.648 3.576-8.965 5.788-14.777a652.78 652.78 0 0 0 5.812 14.777h-11.6Zm8.306-18.965h-3.365l-13.694 33.694h2.941l5.012-12.753h13.129l5.083 12.753h4.87l-8.635-20.706-5.341-12.988ZM27.137 12.94c0-3.247 2.965-6.094 7.412-6.094s7.506 2.4 8.706 3.435V7.224a19.835 19.835 0 0 0-8.895-2.212c-5.717 0-10.988 3.482-10.988 9.106 0 11.905 18.353 7.623 18.353 16.54 0 3.671-3.364 7.342-8.988 7.342-4.353 0-7.765-2.306-9.365-3.318v3.036c2.753 1.53 6.118 2.33 9.365 2.33 6.753 0 12.847-4 12.847-10.777 0-11.389-18.47-7.53-18.47-16.306m19.27-5.153h10.494v31.34h4.282V7.813h10.448V5.788H46.383v2.024ZM4.337 22.047h13.576v-1.976h-13.6V7.835h14.824V5.788H.078v33.365h19.224v-2.141H4.337V22.047ZM143.984 5.788h-4.212v33.365h19.059v-2.188h-14.823V5.788h-.024Zm-63.6 16.26h13.553V20.07H80.384V7.835h14.682V5.788H76.102v33.365h19.2v-2.141H80.384V22.047ZM95.066 0H75.984v1.93h19.082V0Z" fill="#fff"/></svg>
